public/avatar/hat/108.svg

<svg xmlns:xlink="http://www.w3.org/1999/xlink" height="92.9" width="100.7" xmlns="http://www.w3.org/2000/svg"><use height="34.45" transform="translate(20.85 44.5)" width="35.15" xlink:href="#a"/><defs><g id="a"><path d="m8.3 10.15.9 1.3q1.65 2.1 1.65 2.55 0 1.25-1.55 1.25l-1.95-.6Q5.75 14 2.75 14q-8.3 0-11.5.9-1.6.4-2.4.85-1.25 0-1.25-1.35 0-2.35 4.5-3.6L2.6 9.2l1.35-.05q3.1 0 4.35 1" fill="#2c2833" fill-opacity=".251" fill-rule="evenodd" transform="translate(17.8 5.25)"/><path d="M25.3 1.4q-1.25.7-3.3 1.15l-1.4-.3-3.2-.55q-2.25 0-4.85 1-2.7-.6-4-1.3-3.3-1.05-4.15.8-.65 1.5-1.35 4.45-.65 2.65-.2 4.75L1.8 13.7 1 16.35l.15-.15L1 17.95l.4 2q.35 1.65.15 3.15-.9 3.95-.3 4.35l6.45 3.7Q10.05 33 17.55 33q9.2 0 12.2-2.9l3.95-2.65q.6-.35-.35-4.25.8-3.7.8-5.25 0-3.25-3-7.45.15-2.05-.3-3.85L29.5 2.2q-.85-1.8-4.2-.8Z" fill="none" stroke="#59120c" stroke-linecap="round" stroke-linejoin="round" stroke-width="2"/><path d="m11.7-3.05 1.35 4.45q1.2 5.6-.5 5.75-1.25.1-3.95-3L4.95.2 2-2.2q4.7-1.25 5.5-1.65 3.35-1 4.2.8" fill="#ef3b28" fill-rule="evenodd" transform="translate(17.8 5.25)"/><path d="M10.4 5.2q-.35-.15-.4-3.7 0-3.25.15-4.05 2.4.5 2.7 4.7.35 4.2-2.45 3.05" fill="#d43523" fill-rule="evenodd" transform="translate(17.8 5.25)"/><path d="M5.25-2.55q3.1-1.6 4.8-1.05-.65 2.3-4.8 1.05l-.4.2.2-.25.2.05" fill="#ffb1af" fill-rule="evenodd" transform="translate(17.8 5.25)"/><path d="M-13.4-3.05q.85-1.85 4.15-.8.8.4 5.55 1.65L-6.65.2l-3.65 3.95q-2.7 3.1-4 3-.8-.05-.8-2.4 0-1.9.35-3.35.7-2.95 1.35-4.45" fill="#ef3b28" fill-rule="evenodd" transform="translate(17.8 5.25)"/><path d="M-12.1 5.2q-2.8 1.15-2.45-3.05.3-4.2 2.7-4.7l.1 4.05q0 3.55-.35 3.7" fill="#d43523" fill-rule="evenodd" transform="translate(17.8 5.25)"/><path d="m-6.95-2.55.2-.05.15.25-.35-.2q-4.15 1.25-4.8-1.05 1.75-.55 4.8 1.05" fill="#ffb1af" fill-rule="evenodd" transform="translate(17.8 5.25)"/><path d="m9.15 6.25.9.5Q11 7.4 11.1 8.1q.2 1.2-3.2 2.65Q4.05 12.3-.6 12.3q-4.35 0-8.35-1.15-2.95-.85-3.7-1.55-.35-.3.4-1.15l.85-.8 20.55-1.4" fill="#761c13" fill-rule="evenodd" transform="translate(17.8 5.25)"/><path d="m-8.15 10.7-.8 1.05q-.7 1.35-.1 2.85 2.65 6.2 9 6.5l-4.15-.3q-4.6-1.2-6.7-5.6-2.1-4.35-.75-5.5l1.75-.25 1.75 1.25m15.8 0L9.4 9.45l1.8.25q1.35 1.15-.8 5.5-2.1 4.4-6.7 5.6l-3.5.25q5.85-.55 8.35-6.45.65-1.5-.05-2.85l-.85-1.05" fill="#761c13" fill-rule="evenodd" transform="translate(17.8 5.25)"/><path d="M11.05 2.4q5.3 5.55 5.3 10.3l-.55 3.5q-.45 2.35-.1 4-2.95 4.45-5.85 6.4-3.95 2.6-10.1 2.6-5.95 0-10.15-3.55-2.4-2-5.9-7.3.3-1.75-.05-3.55l-.45-2.1q0-5.8 5.15-10.95 5.2-5.3 11.25-5.3 5.8 0 11.45 5.95m-5 16.05q3.4-2.3 3.9-4.9.5-2.6-2.85-4.9-3.25-2.2-7.1-2.2h-.7q-3.85 0-7.1 2.2-3.35 2.3-2.8 4.9.5 2.6 3.95 4.9 3.35 2.3 6.4 2.3 3 0 6.3-2.3" fill="#ef3b28" fill-rule="evenodd" transform="translate(17.8 5.25)"/><path d="M7.8-.3q1.35 1.35 4.55 6.25 1.1 1.7 1.3 3.05-.1 3.3-.9 2.75-.7-.4-1.05-1.35l-.65-1.65q-.5-.9-2.5-2.3-3.4-2.15-5.6-5.1L.55-.8q-1.7-1.65-.45-2L.95-3Q4.6-3.6 7.8-.3" fill="#d43523" fill-rule="evenodd" transform="translate(17.8 5.25)"/><path d="M10.2 7.4 8.5 9.25Q5.55 11.1-.9 11.1t-9.3-1.45l-1.55-1.5L10.2 7.4" fill="#ffb1af" fill-rule="evenodd" transform="translate(17.8 5.25)"/><path d="M7.55 5.75q2.65.9 2.65 1.65 0 .8-2.05 1.55Q5.2 10-.7 10q-11.1 0-11.1-2 0-.75 2.6-1.9 3.4-1.5 8.35-1.5 5.05 0 8.4 1.15" fill="#ff3d2b" fill-rule="evenodd" transform="translate(17.8 5.25)"/><path d="m5.5 6.15.75-.1 2.95 1.5Q8 8.65 5.2 9.1l-1.95.45q-1.2.25-1.8-.35L3.7 7.7l1.8-1.55" fill="#d43523" fill-rule="evenodd" transform="translate(17.8 5.25)"/><path d="m-13.05 10.85 1.5 7.6q15 10.25 10.25 9.9-6.85-.6-15.25-6.15-.8-.5.7-5.9 1.5-5.45 2.8-5.45" fill="#ef3b28" fill-rule="evenodd" transform="translate(17.8 5.25)"/><path d="M12.35 11.35q1.3 0 2.85 5.15 1.5 5.1.7 5.7Q8.45 27.95.65 28.6q-2.95.2 3.1-4.7l7.15-5.45q.65-.6 1.45-7.1" fill="#ef3b28" fill-rule="evenodd" transform="translate(17.8 5.25)"/><path d="M7.7 24q-1.9 1.6-.55-.5 1.25-2 2.6-3.4 3.8-3.95 4.85-6.5v1.1q-1.05 1.7-.8 3.5.05.35.65 1.7.5 1 .35 1.65-2.25 1.5-3.2 1l.7-2.35L7.7 24m-23.3-9.25-1-1.85 3.05 5 1.7 2.5q1.1 1.75 1.05 2.65-1.75.25-3.9-2.65-.7-.95-.65-2.85.05-2.15-.25-2.8" fill="#d43523" fill-rule="evenodd" transform="translate(17.8 5.25)"/><path d="M-4.7-.65Q-10.45.9-12.8 6.2q-1.4 3.1-4 4.9.4-3.15 3.3-7 1.65-2.25 2.9-3.1L-7-1.4q2.7-1.2 4.7-.95.1 1.1-2.4 1.7" fill="#ffb1af" fill-rule="evenodd" transform="translate(17.8 5.25)"/></g></defs></svg>

<?xml version="1.0" encoding="UTF-8" standalone="no"?>
<svg xmlns:xlink="http://www.w3.org/1999/xlink" height="92.9px" width="100.7px" xmlns="http://www.w3.org/2000/svg">
  <g transform="matrix(1.0, 0.0, 0.0, 1.0, 38.65, 49.75)">
    <use height="34.45" transform="matrix(1.0, 0.0, 0.0, 1.0, -17.8, -5.25)" width="35.15" xlink:href="#shape0"/>
  </g>
  <defs>
    <g id="shape0" transform="matrix(1.0, 0.0, 0.0, 1.0, 17.8, 5.25)">
      <path d="M8.3 10.15 L9.2 11.45 Q10.85 13.55 10.85 14.0 10.85 15.25 9.3 15.25 L7.35 14.65 Q5.75 14.0 2.75 14.0 -5.55 14.0 -8.75 14.9 -10.35 15.3 -11.15 15.75 -12.4 15.75 -12.4 14.4 -12.4 12.05 -7.9 10.8 L2.6 9.2 3.95 9.15 Q7.05 9.15 8.3 10.15" fill="#2c2833" fill-opacity="0.2509804" fill-rule="evenodd" stroke="none"/>
      <path d="M7.5 -3.85 Q6.25 -3.15 4.2 -2.7 L2.8 -3.0 -0.4 -3.55 Q-2.65 -3.55 -5.25 -2.55 -7.95 -3.15 -9.25 -3.85 -12.55 -4.9 -13.4 -3.05 -14.05 -1.55 -14.75 1.4 -15.4 4.05 -14.95 6.15 L-16.0 8.45 -16.8 11.1 -16.65 10.95 -16.8 12.7 -16.4 14.7 Q-16.05 16.35 -16.25 17.85 -17.15 21.8 -16.55 22.2 L-10.1 25.9 Q-7.75 27.75 -0.25 27.75 8.95 27.75 11.95 24.85 L15.9 22.2 Q16.5 21.85 15.55 17.95 16.35 14.25 16.35 12.7 16.35 9.45 13.35 5.25 13.5 3.2 13.05 1.4 L11.7 -3.05 Q10.85 -4.85 7.5 -3.85 Z" fill="none" stroke="#59120c" stroke-linecap="round" stroke-linejoin="round" stroke-width="2.0"/>
      <path d="M11.7 -3.05 L13.05 1.4 Q14.25 7.0 12.55 7.15 11.3 7.25 8.6 4.15 L4.95 0.2 2.0 -2.2 Q6.7 -3.45 7.5 -3.85 10.85 -4.85 11.7 -3.05" fill="#ef3b28" fill-rule="evenodd" stroke="none"/>
      <path d="M10.4 5.2 Q10.05 5.05 10.0 1.5 10.0 -1.75 10.15 -2.55 12.55 -2.05 12.85 2.15 13.2 6.35 10.4 5.2" fill="#d43523" fill-rule="evenodd" stroke="none"/>
      <path d="M5.25 -2.55 Q8.35 -4.15 10.05 -3.6 9.4 -1.3 5.25 -2.55 L4.85 -2.35 5.05 -2.6 5.25 -2.55" fill="#ffb1af" fill-rule="evenodd" stroke="none"/>
      <path d="M-13.4 -3.05 Q-12.55 -4.9 -9.25 -3.85 -8.45 -3.45 -3.7 -2.2 L-6.65 0.2 -10.3 4.15 Q-13.0 7.25 -14.3 7.15 -15.1 7.1 -15.1 4.75 -15.1 2.85 -14.75 1.4 -14.05 -1.55 -13.4 -3.05" fill="#ef3b28" fill-rule="evenodd" stroke="none"/>
      <path d="M-12.1 5.2 Q-14.9 6.35 -14.55 2.15 -14.25 -2.05 -11.85 -2.55 L-11.75 1.5 Q-11.75 5.05 -12.1 5.2" fill="#d43523" fill-rule="evenodd" stroke="none"/>
      <path d="M-6.95 -2.55 L-6.75 -2.6 -6.6 -2.35 -6.95 -2.55 Q-11.1 -1.3 -11.75 -3.6 -10.0 -4.15 -6.95 -2.55" fill="#ffb1af" fill-rule="evenodd" stroke="none"/>
      <path d="M9.15 6.25 L10.05 6.75 Q11.0 7.4 11.1 8.1 11.3 9.3 7.9 10.75 4.05 12.3 -0.6 12.3 -4.95 12.3 -8.95 11.15 -11.9 10.3 -12.65 9.6 -13.0 9.3 -12.25 8.45 L-11.4 7.65 9.15 6.25" fill="#761c13" fill-rule="evenodd" stroke="none"/>
      <path d="M-8.15 10.7 L-8.95 11.75 Q-9.65 13.1 -9.05 14.6 -6.4 20.8 -0.05 21.1 L-4.2 20.8 Q-8.8 19.6 -10.9 15.2 -13.0 10.85 -11.65 9.7 L-9.9 9.45 -8.15 10.7" fill="#761c13" fill-rule="evenodd" stroke="none"/>
      <path d="M7.65 10.7 L9.4 9.45 11.2 9.7 Q12.55 10.85 10.4 15.2 8.3 19.6 3.7 20.8 L0.2 21.05 Q6.05 20.5 8.55 14.6 9.2 13.1 8.5 11.75 L7.65 10.7" fill="#761c13" fill-rule="evenodd" stroke="none"/>
      <path d="M11.05 2.4 Q16.35 7.95 16.35 12.7 L15.8 16.2 Q15.35 18.55 15.7 20.2 12.75 24.65 9.85 26.6 5.9 29.2 -0.25 29.2 -6.2 29.2 -10.4 25.65 -12.8 23.65 -16.3 18.35 -16.0 16.6 -16.35 14.8 L-16.8 12.7 Q-16.8 6.9 -11.65 1.75 -6.45 -3.55 -0.4 -3.55 5.4 -3.55 11.05 2.4 M6.05 18.45 Q9.45 16.15 9.95 13.55 10.45 10.95 7.1 8.65 3.85 6.45 0.0 6.45 L-0.7 6.45 Q-4.55 6.45 -7.8 8.65 -11.15 10.95 -10.6 13.55 -10.1 16.15 -6.65 18.45 -3.3 20.75 -0.25 20.75 2.75 20.75 6.05 18.45" fill="#ef3b28" fill-rule="evenodd" stroke="none"/>
      <path d="M7.8 -0.3 Q9.15 1.05 12.35 5.95 13.45 7.65 13.65 9.0 13.55 12.3 12.75 11.75 12.05 11.35 11.7 10.4 L11.05 8.75 Q10.55 7.85 8.55 6.45 5.15 4.3 2.95 1.35 L0.55 -0.8 Q-1.15 -2.45 0.1 -2.8 L0.95 -3.0 Q4.6 -3.6 7.8 -0.3" fill="#d43523" fill-rule="evenodd" stroke="none"/>
      <path d="M10.2 7.4 L8.5 9.25 Q5.55 11.1 -0.9 11.1 -7.35 11.1 -10.2 9.65 L-11.75 8.15 10.2 7.4" fill="#ffb1af" fill-rule="evenodd" stroke="none"/>
      <path d="M7.55 5.75 Q10.2 6.65 10.2 7.4 10.2 8.2 8.15 8.95 5.2 10.0 -0.7 10.0 -11.8 10.0 -11.8 8.0 -11.8 7.25 -9.2 6.1 -5.8 4.6 -0.85 4.6 4.2 4.6 7.55 5.75" fill="#ff3d2b" fill-rule="evenodd" stroke="none"/>
      <path d="M5.5 6.15 L6.25 6.05 9.2 7.55 Q8.0 8.65 5.2 9.1 L3.25 9.55 Q2.05 9.8 1.45 9.2 L3.7 7.7 5.5 6.15" fill="#d43523" fill-rule="evenodd" stroke="none"/>
      <path d="M-13.05 10.85 L-11.55 18.45 Q3.45 28.7 -1.3 28.35 -8.15 27.75 -16.55 22.2 -17.35 21.7 -15.85 16.3 -14.35 10.85 -13.05 10.85" fill="#ef3b28" fill-rule="evenodd" stroke="none"/>
      <path d="M12.35 11.35 Q13.65 11.35 15.2 16.5 16.7 21.6 15.9 22.2 8.45 27.95 0.65 28.6 -2.3 28.8 3.75 23.9 L10.9 18.45 Q11.55 17.85 12.35 11.35" fill="#ef3b28" fill-rule="evenodd" stroke="none"/>
      <path d="M7.7 24.0 Q5.8 25.6 7.15 23.5 8.4 21.5 9.75 20.1 13.55 16.15 14.6 13.6 L14.6 14.7 Q13.55 16.4 13.8 18.2 13.85 18.55 14.45 19.9 14.95 20.9 14.8 21.55 12.55 23.05 11.6 22.55 L12.3 20.2 7.7 24.0" fill="#d43523" fill-rule="evenodd" stroke="none"/>
      <path d="M-15.6 14.75 L-16.6 12.9 -13.55 17.9 -11.85 20.4 Q-10.75 22.15 -10.8 23.05 -12.55 23.3 -14.7 20.4 -15.4 19.45 -15.35 17.55 -15.3 15.4 -15.6 14.75" fill="#d43523" fill-rule="evenodd" stroke="none"/>
      <path d="M-4.7 -0.65 Q-10.45 0.9 -12.8 6.2 -14.2 9.3 -16.8 11.1 -16.4 7.95 -13.5 4.1 -11.85 1.85 -10.6 1.0 L-7.0 -1.4 Q-4.3 -2.6 -2.3 -2.35 -2.2 -1.25 -4.7 -0.65" fill="#ffb1af" fill-rule="evenodd" stroke="none"/>
    </g>
  </defs>
</svg>
